X: 63
T: No_67_Antelope_Song.krn
N: Derived from No_67_Antelope_Song.krn
%%abc-version 2.0
%%abcx-abcm2ps-target-version 5.9.1 (29 Sep 2008)
%%abc-creator hum2abc beta
%%abcx-conversion-date 2019/03/15 08:25:35
%%humdrum-veritas 3765057428
%%humdrum-veritas-data 3744128027
%%linebreak <none>
%%barnumbers 0
L: 1/8
M: 2/4
K: E clef=bass
[K:clef=bass][M:2/4]!accent!B,/B,/B, F, z | 
!accent!B,/B,/B,F,2 | 
[M:3/4]!accent!B,!accent!B, F,F, F, z | 
[M:2/4]!accent!B,/B,/B, F, z | 
!accent!B,/B,/B,F,2 | 
[M:3/4]!accent!B,!accent!B, F,F, F, z | 
[M:2/4]B,/B,/B, F,B, ]|:  
[M:3/4]CG, G,F, CA, | 
[M:2/4]B,2B,2- | 
B,2z3/ D/ | 
F4 | 
[M:5/8]GEEE/C/C | 
[M:2/4]B,2z F | 
(FD) z/ (D/C) | 
[M:3/8]B,2z | 
[M:2/4]B,/F,/F, F,F, | 
[M:3/4]F,F, F,/D,/D,/ z/ D,/D,/C,/ z/ | 
[M:2/4]B,,2z2 | 
!accent!D,/D,/B,, !accent!D,B,, | 
!accent!D,!accent!D, !accent!B,,D,/ z/ | 
!accent!B,,2B,, z | 
[M:3/4]D,/B,,B,,/ B,,B,, B,, z :|]|:  
[M:2/4]F2F2 | 
F/C/CF2 | 
G3/E/ E/C/C/ z/ | 
EB, C z | 
EC/ z/ CE | 
CA, B, z | 
[M:3/4]CC CE/ z/ CA, | 
B,4z2 | 
[M:2/4]F4 | 
F/F/CF2 | 
G3/E/ E/E/C/ z/ | 
C/C/B, C z | 
[M:5/8]C3C/A,/B, | 
[M:3/4]C2CE CA, | 
B,4z2 | 
[M:2/4]F4 | 
FF/C/D2 | 
[M:3/4]G3/E/ E/C/C C/C/B,/ z/ | 
CE CA,C2 | 
B,2B,G, E, z | 
[M:2/4]G,/E,/E,3//E,// E,E, | 
G,/E,/E,3//C,// B,, z/ E,/ | 
[M:3/4]E, z E,C, C,C, | 
C, z C, z C, z :|]  
[M:3/4]E, z E, z E, z |]  



